icons/threejs-dark.svg

<svg width="256" height="256" viewBox="0 0 256 256" fill="none" xmlns="http://www.w3.org/2000/svg">
<rect width="256" height="256" rx="60" fill="#282828"/>
<path fill-rule="evenodd" clip-rule="evenodd" d="M93.213 222.94L50 48L223.23 97.874L93.213 222.94Z" stroke="white" stroke-width="4" stroke-miterlimit="10" stroke-linejoin="round"/>
<path fill-rule="evenodd" clip-rule="evenodd" d="M136.583 72.9419L158.174 160.438L71.6071 135.493L136.583 72.9419Z" stroke="white" stroke-width="4" stroke-miterlimit="10" stroke-linejoin="round"/>
<path fill-rule="evenodd" clip-rule="evenodd" d="M115.103 147.36L104.379 103.895L147.387 116.241L115.103 147.36Z" stroke="white" stroke-width="4" stroke-miterlimit="10" stroke-linejoin="round"/>
<path fill-rule="evenodd" clip-rule="evenodd" d="M93.6509 60.4829L104.375 103.948L61.3669 91.6019L93.6509 60.4829Z" stroke="white" stroke-width="4" stroke-miterlimit="10" stroke-linejoin="round"/>
<path fill-rule="evenodd" clip-rule="evenodd" d="M179.663 85.2598L190.387 128.725L147.379 116.379L179.663 85.2598Z" stroke="white" stroke-width="4" stroke-miterlimit="10" stroke-linejoin="round"/>
<path fill-rule="evenodd" clip-rule="evenodd" d="M115.108 147.39L125.832 190.855L82.824 178.509L115.108 147.39Z" stroke="white" stroke-width="4" stroke-miterlimit="10" stroke-linejoin="round"/>
</svg>

<svg xmlns="http://www.w3.org/2000/svg" width="256" height="256" fill="none"><rect width="256" height="256" fill="#282828" rx="60"/><path stroke="#fff" stroke-linejoin="round" stroke-miterlimit="10" stroke-width="4" d="M93.213 222.94 50 48l173.23 49.874z" clip-rule="evenodd"/><path stroke="#fff" stroke-linejoin="round" stroke-miterlimit="10" stroke-width="4" d="m136.583 72.942 21.591 87.496-86.567-24.945z" clip-rule="evenodd"/><path stroke="#fff" stroke-linejoin="round" stroke-miterlimit="10" stroke-width="4" d="m115.103 147.36-10.724-43.465 43.008 12.346zM93.65 60.483l10.725 43.465-43.008-12.346zm86.013 24.777 10.724 43.465-43.008-12.346zm-64.555 62.13 10.724 43.465-43.008-12.346z" clip-rule="evenodd"/></svg>
